src/assets/icons/lin.svg

<svg width="64" height="64" viewBox="0 0 64 64" fill="none" xmlns="http://www.w3.org/2000/svg">
<path d="M59.3843 0H4.61572C2.06641 0 0 2.06641 0 4.61572V59.3843C0 61.9336 2.06641 64 4.61572 64H59.3843C61.9336 64 64 61.9336 64 59.3843V4.61572C64 2.06641 61.9336 0 59.3843 0V0ZM22.7012 48.375H14.9077V24.9282H22.7012V48.375ZM18.8047 21.7266H18.7539C16.1387 21.7266 14.4473 19.9263 14.4473 17.6763C14.4473 15.3755 16.1904 13.625 18.8564 13.625C21.5225 13.625 23.1631 15.3755 23.2139 17.6763C23.2139 19.9263 21.5225 21.7266 18.8047 21.7266ZM50.8027 48.375H43.0103V35.8315C43.0103 32.6792 41.8818 30.5293 39.062 30.5293C36.9092 30.5293 35.627 31.9795 35.0635 33.3794C34.8574 33.8804 34.8071 34.5806 34.8071 35.2812V48.375H27.0142C27.0142 48.375 27.1162 27.1279 27.0142 24.9282H34.8071V28.248C35.8428 26.6504 37.6958 24.3779 41.8306 24.3779C46.958 24.3779 50.8027 27.729 50.8027 34.9307V48.375Z" fill="#28282D"/>
</svg>

<svg xmlns="http://www.w3.org/2000/svg" width="64" height="64" fill="none" xmlns:v="https://vecta.io/nano"><path d="M59.384 0H4.616C2.066 0 0 2.066 0 4.616v54.769C0 61.934 2.066 64 4.616 64h54.769C61.934 64 64 61.934 64 59.384V4.616C64 2.066 61.934 0 59.384 0h0zM22.701 48.375h-7.793V24.928h7.794v23.447zm-3.896-26.648h-.051c-2.615 0-4.307-1.8-4.307-4.05 0-2.301 1.743-4.051 4.409-4.051s4.307 1.751 4.357 4.051c0 2.25-1.691 4.05-4.409 4.05zm31.998 26.648H43.01V35.832c0-3.152-1.129-5.302-3.948-5.302-2.153 0-3.435 1.45-3.998 2.85-.206.501-.256 1.201-.256 1.902v13.094h-7.793V24.928h7.793v3.32c1.036-1.598 2.889-3.87 7.023-3.87 5.127 0 8.972 3.351 8.972 10.553v13.444z" fill="#28282d"/></svg>
